X: 21452
M: 2/4
L: 1/16
K: D
ed |\
c2{^d}e2 {^g}a2c'2 | c'2ba ^g2f2 | f2e2 {f}e^de2 | f2e2 {f}e^de2 |\
c2{^d}e2 {^g}a2c'2 | c'2ba ^g2f2 | fe^de fec'b | aec'b a2z2 |]
c'2A2 c'2b2 | b2a2 agf2 | a2A2 a2g2 | g2f2 fed2 |\
c'2A2 c'2b2 | b2a2 agf2 | e2c'b agBc | d2f2"^D.C."d2 |]


